X: 14350
T: Gallowglass, The
R: jig
M: 6/8
K: Gmajor
E/D/|B,EE E>DE|FEF d2 B|AFA dB/^c/d/B/|AFD D2 E/D/|
B,EE E>DE|FEF e2 d|B>AG A>GF|BGE E2:|
B/4^c/4^d/|eBe/f/ g>fe|def g2 f/e/|d>^cB AFd/B/|AFD D2 B/4^c/4^d/|
eBe/f/ g>fe|def g2 f/e/|d>^cB AFA|BGE E2 B/4^c/4^d/|
eBe/f/ g>fe|def g2 f/e/|d>^c B AFd/B/|AFD D2 E/D/|
B,EE E>DE|FEF e2 d|B>AG A>GF|BGE E2||

